;FLAVOR:Marlin
;TIME:1350
;Filament used: 0.850852m
;Layer height: 0.2
;MINX:32.2
;MINY:32.2
;MINZ:0.2
;MAXX:187.8
;MAXY:187.8
;MAXZ:0.4
;Generated with Cura_SteamEngine 4.3.0
M140 S50
M105
M190 S50
M104 S200
M105
M109 S200
M82 ;absolute extrusion mode
M201 X500.00 Y500.00 Z100.00 E5000.00 ;Setup machine max acceleration
M203 X500.00 Y500.00 Z10.00 E50.00 ;Setup machine max feedrate
M204 P500.00 R1000.00 T500.00 ;Setup Print/Retract/Travel acceleration
M205 X8.00 Y8.00 Z0.40 E5.00 ;Setup Jerk
M220 S100 ;Reset Feedrate
M221 S100 ;Reset Flowrate

G28 ;Home

G92 E0 ;Reset Extruder
G1 Z2.0 F3000 ;Move Z Axis up
G1 X10.1 Y20 Z0.28 F5000.0 ;Move to start position
G1 X10.1 Y200.0 Z0.28 F1500.0 E15 ;Draw the first line
G1 X10.4 Y200.0 Z0.28 F5000.0 ;Move to side a little
G1 X10.4 Y20 Z0.28 F1500.0 E30 ;Draw the second line
G92 E0 ;Reset Extruder
G1 Z2.0 F3000 ;Move Z Axis up

G92 E0
G92 E0
G1 F2700 E-5
;LAYER_COUNT:2
;LAYER:0
M107
G0 F6000 X34.485 Y34.602 Z0.2
;TYPE:SKIRT
G1 F2700 E0
G1 F1200 X34.602 Y34.485 E0.0055
G1 X35.188 Y33.955 E0.03178
G1 X35.824 Y33.488 E0.05803
G1 X36.504 Y33.087 E0.08428
G1 X37.222 Y32.757 E0.11057
G1 X37.969 Y32.502 E0.13682
G1 X38.738 Y32.323 E0.16308
G1 X39.522 Y32.223 E0.18937
G1 X40.117 Y32.2 E0.20917
G1 X179.883 Y32.2 E4.85781
G1 X180.672 Y32.24 E4.88408
G1 X181.452 Y32.359 E4.91033
G1 X182.217 Y32.557 E4.93661
G1 X182.957 Y32.831 E4.96285
G1 X183.666 Y33.179 E4.98912
G1 X184.337 Y33.597 E5.01542
G1 X184.961 Y34.08 E5.04166
G1 X185.398 Y34.485 E5.06148
G1 X185.515 Y34.602 E5.06698
G1 X186.045 Y35.188 E5.09326
G1 X186.512 Y35.824 E5.11951
G1 X186.913 Y36.504 E5.14576
G1 X187.243 Y37.222 E5.17204
G1 X187.498 Y37.969 E5.1983
G1 X187.677 Y38.738 E5.22456
G1 X187.777 Y39.522 E5.25085
G1 X187.8 Y40.117 E5.27065
G1 X187.8 Y179.883 E9.91929
G1 X187.76 Y180.672 E9.94556
G1 X187.641 Y181.452 E9.9718
G1 X187.443 Y182.217 E9.99809
G1 X187.169 Y182.957 E10.02433
G1 X186.821 Y183.666 E10.0506
G1 X186.403 Y184.337 E10.0769
G1 X185.92 Y184.961 E10.10314
G1 X185.515 Y185.398 E10.12296
G1 X185.398 Y185.515 E10.12846
G1 X184.812 Y186.045 E10.15474
G1 X184.176 Y186.512 E10.18098
G1 X183.496 Y186.913 E10.20724
G1 X182.778 Y187.243 E10.23352
G1 X182.031 Y187.498 E10.25978
G1 X181.262 Y187.677 E10.28604
G1 X180.478 Y187.777 E10.31232
G1 X179.883 Y187.8 E10.33213
G1 X40.117 Y187.8 E14.98076
G1 X39.328 Y187.76 E15.00704
G1 X38.548 Y187.641 E15.03328
G1 X37.783 Y187.443 E15.05957
G1 X37.043 Y187.169 E15.08581
G1 X36.334 Y186.821 E15.11208
G1 X35.663 Y186.403 E15.13837
G1 X35.039 Y185.92 E15.16462
G1 X34.602 Y185.515 E15.18444
G1 X34.485 Y185.398 E15.18994
G1 X33.955 Y184.812 E15.21622
G1 X33.488 Y184.176 E15.24246
G1 X33.087 Y183.496 E15.26872
G1 X32.757 Y182.778 E15.295
G1 X32.502 Y182.031 E15.32125
G1 X32.323 Y181.262 E15.34752
G1 X32.223 Y180.478 E15.3738
G1 X32.2 Y179.883 E15.39361
G1 X32.2 Y40.117 E20.04224
G1 X32.24 Y39.328 E20.06852
G1 X32.359 Y38.548 E20.09476
G1 X32.557 Y37.783 E20.12105
G1 X32.831 Y37.043 E20.14729
G1 X33.179 Y36.334 E20.17356
G1 X33.597 Y35.663 E20.19985
G1 X34.08 Y35.039 E20.2261
G1 X34.485 Y34.602 E20.24592
G0 F6000 X34.767 Y34.884
G1 F1200 X34.884 Y34.767 E20.25142
G1 X35.456 Y34.253 E20.277
G1 X36.078 Y33.8 E20.30259
G1 X36.743 Y33.414 E20.32816
G1 X37.445 Y33.099 E20.35375
G1 X38.176 Y32.859 E20.37934
G1 X38.927 Y32.696 E20.4049
G1 X39.692 Y32.612 E20.4305
G1 X40.117 Y32.6 E20.44464
G1 X179.883 Y32.6 E25.09328
G1 X180.651 Y32.64 E25.11886
G1 X181.411 Y32.759 E25.14444
G1 X182.154 Y32.957 E25.17002
G1 X182.873 Y33.231 E25.19561
G1 X183.559 Y33.578 E25.22118
G1 X184.206 Y33.994 E25.24676
G1 X184.806 Y34.475 E25.27234
G1 X185.116 Y34.767 E25.2865
G1 X185.233 Y34.884 E25.29201
G1 X185.747 Y35.456 E25.31758
G1 X186.2 Y36.078 E25.34318
G1 X186.586 Y36.743 E25.36875
G1 X186.901 Y37.445 E25.39434
G1 X187.141 Y38.176 E25.41993
G1 X187.304 Y38.927 E25.44549
G1 X187.388 Y39.692 E25.47109
G1 X187.4 Y40.117 E25.48523
G1 X187.4 Y179.883 E30.13387
G1 X187.36 Y180.651 E30.15945
G1 X187.241 Y181.411 E30.18503
G1 X187.043 Y182.154 E30.21061
G1 X186.769 Y182.873 E30.2362
G1 X186.422 Y183.559 E30.26177
G1 X186.006 Y184.206 E30.28735
G1 X185.525 Y184.806 E30.31293
G1 X185.233 Y185.116 E30.32709
G1 X185.116 Y185.233 E30.33259
G1 X184.544 Y185.747 E30.35817
G1 X183.922 Y186.2 E30.38377
G1 X183.257 Y186.586 E30.40934
G1 X182.555 Y186.901 E30.43493
G1 X181.824 Y187.141 E30.46052
G1 X181.073 Y187.304 E30.48608
G1 X180.308 Y187.388 E30.51168
G1 X179.883 Y187.4 E30.52582
G1 X40.117 Y187.4 E35.17445
G1 X39.349 Y187.36 E35.20003
G1 X38.589 Y187.241 E35.22562
G1 X37.846 Y187.043 E35.25119
G1 X37.127 Y186.769 E35.27679
G1 X36.441 Y186.422 E35.30235
G1 X35.794 Y186.006 E35.32794
G1 X35.194 Y185.525 E35.35352
G1 X34.884 Y185.233 E35.36768
G1 X34.767 Y185.116 E35.37318
G1 X34.253 Y184.544 E35.39876
G1 X33.8 Y183.922 E35.42435
G1 X33.414 Y183.257 E35.44993
G1 X33.099 Y182.555 E35.47552
G1 X32.859 Y181.824 E35.50111
G1 X32.696 Y181.073 E35.52667
G1 X32.612 Y180.308 E35.55227
G1 X32.6 Y179.883 E35.56641
G1 X32.6 Y40.117 E40.21504
G1 X32.64 Y39.349 E40.24062
G1 X32.759 Y38.589 E40.26621
G1 X32.957 Y37.846 E40.29178
G1 X33.231 Y37.127 E40.31737
G1 X33.578 Y36.441 E40.34294
G1 X33.994 Y35.794 E40.36853
G1 X34.475 Y35.194 E40.3941
G1 X34.767 Y34.884 E40.40827
G0 F6000 X35.05 Y35.167
G1 F1200 X35.167 Y35.05 E40.41377
G1 X35.724 Y34.55 E40.43867
G1 X36.33 Y34.113 E40.46352
G1 X36.98 Y33.742 E40.48841
G1 X37.666 Y33.443 E40.5133
G1 X38.38 Y33.219 E40.53819
G1 X39.113 Y33.072 E40.56305
G1 X40.117 Y33 E40.59653
G1 X179.883 Y33 E45.24517
G1 X180.63 Y33.04 E45.27005
G1 X181.368 Y33.159 E45.29491
G1 X182.09 Y33.357 E45.31981
G1 X182.786 Y33.63 E45.34468
G1 X183.449 Y33.977 E45.36957
G1 X184.072 Y34.392 E45.39446
G1 X184.833 Y35.05 E45.42793
G1 X184.95 Y35.167 E45.43343
G1 X185.45 Y35.724 E45.45832
G1 X185.887 Y36.33 E45.48317
G1 X186.258 Y36.98 E45.50807
G1 X186.557 Y37.666 E45.53296
G1 X186.781 Y38.38 E45.55784
G1 X186.928 Y39.113 E45.58271
G1 X187 Y40.117 E45.61619
G1 X187 Y179.883 E50.26482
G1 X186.96 Y180.63 E50.28971
G1 X186.841 Y181.368 E50.31457
G1 X186.643 Y182.09 E50.33947
G1 X186.37 Y182.786 E50.36434
G1 X186.023 Y183.449 E50.38922
G1 X185.608 Y184.072 E50.41412
G1 X184.95 Y184.833 E50.44758
G1 X184.833 Y184.95 E50.45309
G1 X184.276 Y185.45 E50.47798
G1 X183.67 Y185.887 E50.50283
G1 X183.02 Y186.258 E50.52772
G1 X182.334 Y186.557 E50.55261
G1 X181.62 Y186.781 E50.5775
G1 X180.887 Y186.928 E50.60237
G1 X179.883 Y187 E50.63585
G1 X40.117 Y187 E55.28448
G1 X39.37 Y186.96 E55.30936
G1 X38.632 Y186.841 E55.33423
G1 X37.91 Y186.643 E55.35913
G1 X37.214 Y186.37 E55.38399
G1 X36.551 Y186.023 E55.40888
G1 X35.928 Y185.608 E55.43378
G1 X35.167 Y184.95 E55.46724
G1 X35.05 Y184.833 E55.47274
G1 X34.55 Y184.276 E55.49764
G1 X34.113 Y183.67 E55.52249
G1 X33.742 Y183.02 E55.54738
G1 X33.443 Y182.334 E55.57227
G1 X33.219 Y181.62 E55.59716
G1 X33.072 Y180.887 E55.62202
G1 X33 Y179.883 E55.6555
G1 X33 Y40.117 E60.30414
G1 X33.04 Y39.37 E60.32902
G1 X33.159 Y38.632 E60.35388
G1 X33.357 Y37.91 E60.37878
G1 X33.63 Y37.214 E60.40365
G1 X33.977 Y36.551 E60.42854
G1 X34.392 Y35.928 E60.45344
G1 X35.05 Y35.167 E60.4869
G0 F6000 X35.333 Y35.45
G1 F1200 X35.45 Y35.333 E60.4924
G1 X35.991 Y34.849 E60.51654
G1 X36.582 Y34.426 E60.54072
G1 X37.216 Y34.072 E60.56487
G1 X37.885 Y33.789 E60.58903
G1 X38.581 Y33.581 E60.61319
G1 X39.296 Y33.451 E60.63736
G1 X40.117 Y33.4 E60.66472
G1 X179.883 Y33.4 E65.31335
G1 X180.608 Y33.44 E65.3375
G1 X181.325 Y33.559 E65.36168
G1 X182.024 Y33.757 E65.38584
G1 X182.697 Y34.03 E65.41
G1 X183.336 Y34.375 E65.43415
G1 X183.933 Y34.789 E65.45831
G1 X184.55 Y35.333 E65.48567
G1 X184.667 Y35.45 E65.49118
G1 X185.151 Y35.991 E65.51532
G1 X185.574 Y36.582 E65.53949
G1 X185.928 Y37.216 E65.56364
G1 X186.211 Y37.885 E65.5878
G1 X186.419 Y38.581 E65.61196
G1 X186.549 Y39.296 E65.63614
G1 X186.6 Y40.117 E65.66349
G1 X186.6 Y179.883 E70.31213
G1 X186.56 Y180.608 E70.33628
G1 X186.441 Y181.325 E70.36045
G1 X186.243 Y182.024 E70.38462
G1 X185.97 Y182.697 E70.40877
G1 X185.625 Y183.336 E70.43293
G1 X185.211 Y183.933 E70.45709
G1 X184.667 Y184.55 E70.48445
G1 X184.55 Y184.667 E70.48995
G1 X184.009 Y185.151 E70.5141
G1 X183.418 Y185.574 E70.53827
G1 X182.784 Y185.928 E70.56242
G1 X182.115 Y186.211 E70.58658
G1 X181.419 Y186.419 E70.61074
G1 X180.704 Y186.549 E70.63491
G1 X179.883 Y186.6 E70.66227
G1 X40.117 Y186.6 E75.31091
G1 X39.392 Y186.56 E75.33506
G1 X38.675 Y186.441 E75.35923
G1 X37.976 Y186.243 E75.3834
G1 X37.303 Y185.97 E75.40755
G1 X36.664 Y185.625 E75.4317
G1 X36.067 Y185.211 E75.45587
G1 X35.45 Y184.667 E75.48323
G1 X35.333 Y184.55 E75.48873
G1 X34.849 Y184.009 E75.51287
G1 X34.426 Y183.418 E75.53705
G1 X34.072 Y182.784 E75.5612
G1 X33.789 Y182.115 E75.58536
G1 X33.581 Y181.419 E75.60952
G1 X33.451 Y180.704 E75.63369
G1 X33.4 Y179.883 E75.66105
G1 X33.4 Y40.117 E80.30968
G1 X33.44 Y39.392 E80.33383
G1 X33.559 Y38.675 E80.35801
G1 X33.757 Y37.976 E80.38217
G1 X34.03 Y37.303 E80.40633
G1 X34.375 Y36.664 E80.43048
G1 X34.789 Y36.067 E80.45464
G1 X35.333 Y35.45 E80.482
G0 F6000 X35.616 Y35.733
G1 F1200 X35.733 Y35.616 E80.48751
G1 X36.258 Y35.147 E80.51092
G1 X36.833 Y34.741 E80.53433
G1 X37.451 Y34.403 E80.55776
G1 X38.102 Y34.136 E80.58116
G1 X38.78 Y33.946 E80.60458
G1 X39.475 Y33.833 E80.628
G1 X40.117 Y33.8 E80.64938
G1 X179.883 Y33.8 E85.29802
G1 X180.586 Y33.84 E85.32144
G1 X181.28 Y33.959 E85.34486
G1 X181.955 Y34.157 E85.36825
G1 X182.604 Y34.429 E85.39166
G1 X183.218 Y34.774 E85.41508
G1 X183.789 Y35.185 E85.43848
G1 X184.267 Y35.616 E85.45989
G1 X184.384 Y35.733 E85.46539
G1 X184.853 Y36.258 E85.48881
G1 X185.259 Y36.833 E85.51222
G1 X185.597 Y37.451 E85.53565
G1 X185.864 Y38.102 E85.55905
G1 X186.054 Y38.78 E85.58247
G1 X186.167 Y39.475 E85.60589
G1 X186.2 Y40.117 E85.62727
G1 X186.2 Y179.883 E90.27591
G1 X186.16 Y180.586 E90.29933
G1 X186.041 Y181.28 E90.32275
G1 X185.843 Y181.955 E90.34614
G1 X185.571 Y182.604 E90.36955
G1 X185.226 Y183.218 E90.39297
G1 X184.815 Y183.789 E90.41637
G1 X184.384 Y184.267 E90.43778
G1 X184.267 Y184.384 E90.44328
G1 X183.742 Y184.853 E90.4667
G1 X183.167 Y185.259 E90.49011
G1 X182.549 Y185.597 E90.51354
G1 X181.898 Y185.864 E90.53694
G1 X181.22 Y186.054 E90.56036
G1 X180.525 Y186.167 E90.58378
G1 X179.883 Y186.2 E90.60516
G1 X40.117 Y186.2 E95.25379
G1 X39.414 Y186.16 E95.27721
G1 X38.72 Y186.041 E95.30063
G1 X38.045 Y185.843 E95.32403
G1 X37.396 Y185.571 E95.34743
G1 X36.782 Y185.226 E95.37086
G1 X36.211 Y184.815 E95.39426
G1 X35.733 Y184.384 E95.41567
G1 X35.616 Y184.267 E95.42117
G1 X35.147 Y183.742 E95.44458
G1 X34.741 Y183.167 E95.46799
G1 X34.403 Y182.549 E95.49142
G1 X34.136 Y181.898 E95.51483
G1 X33.946 Y181.22 E95.53824
G1 X33.833 Y180.525 E95.56166
G1 X33.8 Y179.883 E95.58305
G1 X33.8 Y40.117 E100.23168
G1 X33.84 Y39.414 E100.2551
G1 X33.959 Y38.72 E100.27852
G1 X34.157 Y38.045 E100.30192
G1 X34.429 Y37.396 E100.32532
G1 X34.774 Y36.782 E100.34875
G1 X35.185 Y36.211 E100.37215
G1 X35.616 Y35.733 E100.39355
G0 F6000 X35.899 Y36.016
G1 F1200 X36.016 Y35.899 E100.39906
G1 X36.525 Y35.446 E100.42172
G1 X37.083 Y35.057 E100.44434
G1 X37.683 Y34.735 E100.46699
G1 X38.317 Y34.486 E100.48965
G1 X38.976 Y34.313 E100.51231
G1 X39.65 Y34.219 E100.53494
G1 X40.117 Y34.2 E100.55049
G1 X179.883 Y34.2 E105.19912
G1 X180.563 Y34.24 E105.22178
G1 X181.233 Y34.359 E105.24441
G1 X181.885 Y34.556 E105.26707
G1 X182.509 Y34.828 E105.28971
G1 X183.097 Y35.172 E105.31236
G1 X183.641 Y35.582 E105.33502
G1 X183.984 Y35.899 E105.35056
G1 X184.101 Y36.016 E105.35606
G1 X184.554 Y36.525 E105.37872
G1 X184.943 Y37.083 E105.40135
G1 X185.265 Y37.683 E105.42399
G1 X185.514 Y38.317 E105.44665
G1 X185.687 Y38.976 E105.46931
G1 X185.781 Y39.65 E105.49194
G1 X185.8 Y40.117 E105.50749
G1 X185.8 Y179.883 E110.15613
G1 X185.76 Y180.563 E110.17878
G1 X185.641 Y181.233 E110.20141
G1 X185.444 Y181.885 E110.22407
G1 X185.172 Y182.509 E110.24671
G1 X184.828 Y183.097 E110.26937
G1 X184.418 Y183.641 E110.29202
G1 X184.101 Y183.984 E110.30756
G1 X183.984 Y184.101 E110.31306
G1 X183.475 Y184.554 E110.33572
G1 X182.917 Y184.943 E110.35835
G1 X182.317 Y185.265 E110.381
G1 X181.683 Y185.514 E110.40365
G1 X181.024 Y185.687 E110.42631
G1 X180.35 Y185.781 E110.44895
G1 X179.883 Y185.8 E110.46449
G1 X40.117 Y185.8 E115.11313
G1 X39.437 Y185.76 E115.13578
G1 X38.767 Y185.641 E115.15842
G1 X38.115 Y185.444 E115.18107
G1 X37.491 Y185.172 E115.20371
G1 X36.903 Y184.828 E115.22637
G1 X36.359 Y184.418 E115.24903
G1 X36.016 Y184.101 E115.26456
G1 X35.899 Y183.984 E115.27006
G1 X35.446 Y183.475 E115.29273
G1 X35.057 Y182.917 E115.31535
G1 X34.735 Y182.317 E115.338
G1 X34.486 Y181.683 E115.36065
G1 X34.313 Y181.024 E115.38332
G1 X34.219 Y180.35 E115.40595
G1 X34.2 Y179.883 E115.42149
G1 X34.2 Y40.117 E120.07013
G1 X34.24 Y39.437 E120.09279
G1 X34.359 Y38.767 E120.11542
G1 X34.556 Y38.115 E120.13807
G1 X34.828 Y37.491 E120.16071
G1 X35.172 Y36.903 E120.18337
G1 X35.582 Y36.359 E120.20603
G1 X35.899 Y36.016 E120.22156
G0 F6000 X36.182 Y36.299
G1 F1200 X36.299 Y36.182 E120.22707
G1 X36.791 Y35.746 E120.24893
G1 X37.332 Y35.374 E120.27077
G1 X37.914 Y35.07 E120.29261
G1 X38.529 Y34.839 E120.31446
G1 X39.168 Y34.684 E120.33633
G1 X40.117 Y34.6 E120.36801
G1 X179.883 Y34.6 E125.01665
G1 X180.539 Y34.64 E125.03851
G1 X181.185 Y34.759 E125.06036
G1 X181.812 Y34.956 E125.08222
G1 X182.41 Y35.228 E125.10407
G1 X182.971 Y35.57 E125.12592
G1 X183.701 Y36.182 E125.1576
G1 X183.818 Y36.299 E125.16311
G1 X184.254 Y36.791 E125.18497
G1 X184.626 Y37.332 E125.20681
G1 X184.93 Y37.914 E125.22865
G1 X185.161 Y38.529 E125.2505
G1 X185.316 Y39.168 E125.27237
G1 X185.4 Y40.117 E125.30405
G1 X185.4 Y179.883 E129.95269
G1 X185.36 Y180.539 E129.97455
G1 X185.241 Y181.185 E129.9964
G1 X185.044 Y181.812 E130.01826
G1 X184.772 Y182.41 E130.04011
G1 X184.43 Y182.971 E130.06196
G1 X183.818 Y183.701 E130.09364
G1 X183.701 Y183.818 E130.09915
G1 X183.209 Y184.254 E130.12101
G1 X182.668 Y184.626 E130.14285
G1 X182.086 Y184.93 E130.16469
G1 X181.471 Y185.161 E130.18654
G1 X180.832 Y185.316 E130.20841
G1 X179.883 Y185.4 E130.2401
G1 X40.117 Y185.4 E134.88873
G1 X39.461 Y185.36 E134.91059
G1 X38.815 Y185.241 E134.93244
G1 X38.188 Y185.044 E134.9543
G1 X37.59 Y184.772 E134.97615
G1 X37.029 Y184.43 E134.998
G1 X36.299 Y183.818 E135.02968
G1 X36.182 Y183.701 E135.03519
G1 X35.746 Y183.209 E135.05705
G1 X35.374 Y182.668 E135.07889
G1 X35.07 Y182.086 E135.10073
G1 X34.839 Y181.471 E135.12258
G1 X34.684 Y180.832 E135.14445
G1 X34.6 Y179.883 E135.17614
G1 X34.6 Y40.117 E139.82477
G1 X34.64 Y39.461 E139.84663
G1 X34.759 Y38.815 E139.86848
G1 X34.956 Y38.188 E139.89034
G1 X35.228 Y37.59 E139.91219
G1 X35.57 Y37.029 E139.93404
G1 X36.182 Y36.299 E139.96572
G0 F6000 X36.464 Y36.581
G1 F1200 X36.581 Y36.464 E139.97123
G1 X37.056 Y36.047 E139.99225
G1 X37.579 Y35.692 E140.01327
G1 X38.143 Y35.406 E140.03431
G1 X38.738 Y35.194 E140.05531
G1 X39.356 Y35.058 E140.07636
G1 X40.117 Y35 E140.10175
G1 X179.883 Y35 E144.75038
G1 X180.514 Y35.04 E144.77141
G1 X181.135 Y35.159 E144.79244
G1 X181.735 Y35.356 E144.81345
G1 X182.307 Y35.627 E144.8345
G1 X182.839 Y35.967 E144.8555
G1 X183.419 Y36.464 E144.8809
G1 X183.536 Y36.581 E144.8864
G1 X183.953 Y37.056 E144.90743
G1 X184.308 Y37.579 E144.92845
G1 X184.594 Y38.143 E144.94948
G1 X184.806 Y38.738 E144.97049
G1 X184.942 Y39.356 E144.99154
G1 X185 Y40.117 E145.01692
G1 X185 Y179.883 E149.66556
G1 X184.96 Y180.514 E149.68659
G1 X184.841 Y181.135 E149.70762
G1 X184.644 Y181.735 E149.72862
