;FLAVOR:Marlin
;TIME:243
;Filament used: 0.156161m
;Layer height: 0.2
;MINX:79
;MINY:79
;MINZ:0.2
;MAXX:141
;MAXY:141
;MAXZ:0.2
;TARGET_MACHINE.NAME:Creality Ender-3 S1
;POSTPROCESSED
;  [ChangeAtZ]
;Generated with Cura_SteamEngine 5.8.1
M82 ;absolute extrusion mode
; Ender 3 S1 Start G-code
; M413 S0 ; Disable power loss recovery
G92 E0 ; Reset Extruder
; Prep surfaces before auto home for better accuracy
M140 S60
M104 S205
G28 O ; Home all untrusted axes
G28 ;Home
G29 P1
;G29 S0
;G29 A
M420 L0 S1
G1 Z10.0 F3000 ; Move Z Axis up little to prevent scratching of Heat Bed
G1 X0 Y0
M190 S60
M109 S205
G1 X0.1 Y20 Z0.3 F5000.0 ; Move to start position
G1 X0.1 Y200.0 Z0.3 F1500.0 E15 ; Draw the first line
G1 X0.4 Y200.0 Z0.3 F5000.0 ; Move to side a little
G1 X0.4 Y20 Z0.3 F1500.0 E30 ; Draw the second line
G92 E0 ; Reset Extruder
G1 Z2.0 F3000 ; Move Z Axis up little to prevent scratching of Heat Bed
G1 X5 Y20 Z0.3 F5000.0 ; Move over to prevent blob squish
M220 S50
G92 E0
G92 E0
G1 F2400 E-0.8
;LAYER_COUNT:1
;LAYER:0
M107
M204 S2000
G0 F7200 X82.456 Y82.013 Z0.2
M204 S500
;TYPE:SKIRT
G1 F2400 E0
G1 F1500 X83.192 Y81.376 E0.03237
G1 X83.924 Y80.846 E0.06243
G1 X84.821 Y80.311 E0.09717
G1 X85.699 Y79.89 E0.12956
G1 X86.612 Y79.548 E0.16198
G1 X87.549 Y79.289 E0.19432
G1 X88.516 Y79.111 E0.22702
G1 X89.655 Y79.015 E0.26504
G1 X90.312 Y79 E0.2869
G1 X129.304 Y79 E1.58377
G1 X130.184 Y79.013 E1.61305
G1 X131.156 Y79.072 E1.64543
G1 X132.119 Y79.218 E1.67783
G1 X133.066 Y79.449 E1.71025
G1 X133.954 Y79.749 E1.74143
G1 X134.846 Y80.139 E1.77381
G1 X135.729 Y80.626 E1.80735
G1 X136.48 Y81.128 E1.83739
G1 X137.295 Y81.786 E1.87223
G1 X137.993 Y82.464 E1.90459
G1 X138.629 Y83.201 E1.93697
G1 X139.199 Y83.991 E1.96937
G1 X139.661 Y84.767 E1.99941
G1 X140.115 Y85.709 E2.03419
G1 X140.444 Y86.587 E2.06538
G1 X140.713 Y87.559 E2.09892
G1 X140.89 Y88.525 E2.13158
G1 X140.985 Y89.655 E2.1693
G1 X141 Y90.33 E2.19176
G1 X140.999 Y129.4 E3.49123
G1 X140.988 Y130.163 E3.51661
G1 X140.931 Y131.136 E3.54903
G1 X140.786 Y132.099 E3.58142
G1 X140.557 Y133.045 E3.61379
G1 X140.246 Y133.969 E3.64622
G1 X139.854 Y134.86 E3.67859
G1 X139.386 Y135.712 E3.71093
G1 X138.864 Y136.493 E3.74217
G1 X138.231 Y137.278 E3.77571
G1 X137.606 Y137.929 E3.80573
G1 X136.817 Y138.617 E3.84054
G1 X136.057 Y139.167 E3.87175
G1 X135.19 Y139.684 E3.90532
G1 X134.312 Y140.106 E3.93772
G1 X133.401 Y140.448 E3.97009
G1 X132.462 Y140.709 E4.0025
G1 X131.496 Y140.887 E4.03517
G1 X130.345 Y140.985 E4.07359
G1 X129.67 Y141 E4.09605
G1 X90.564 Y140.999 E5.39672
G1 X89.831 Y140.988 E5.4211
G1 X88.859 Y140.931 E5.45349
G1 X87.896 Y140.785 E5.48588
G1 X86.95 Y140.556 E5.51825
G1 X86.026 Y140.244 E5.55069
G1 X85.136 Y139.852 E5.58304
G1 X84.313 Y139.401 E5.61425
G1 X83.474 Y138.84 E5.64782
G1 X82.77 Y138.274 E5.67786
G1 X82.017 Y137.549 E5.71263
G1 X81.38 Y136.813 E5.745
G1 X80.85 Y136.082 E5.77504
G1 X80.314 Y135.185 E5.80979
G1 X79.892 Y134.307 E5.84219
G1 X79.55 Y133.395 E5.87459
G1 X79.29 Y132.457 E5.90696
G1 X79.112 Y131.488 E5.93973
G1 X79.014 Y130.309 E5.97908
G1 X79 Y129.658 E6.00074
G1 X79.001 Y90.525 E7.3023
G1 X79.012 Y89.825 E7.32559
G1 X79.07 Y88.852 E7.35801
G1 X79.216 Y87.889 E7.3904
G1 X79.446 Y86.943 E7.42279
G1 X79.759 Y86.02 E7.4552
G1 X80.151 Y85.13 E7.48755
G1 X80.621 Y84.277 E7.51994
G1 X81.164 Y83.469 E7.55232
G1 X81.731 Y82.765 E7.58238
G1 X82.456 Y82.013 E7.61713
M204 S2000
G0 F7200 X82.718 Y82.315
M204 S500
G1 F1500 X83.427 Y81.7 E7.64834
G1 X84.159 Y81.17 E7.6784
G1 X84.995 Y80.671 E7.71078
G1 X85.84 Y80.264 E7.74198
G1 X86.719 Y79.933 E7.77322
G1 X87.622 Y79.682 E7.80439
G1 X88.55 Y79.51 E7.83578
G1 X89.689 Y79.414 E7.8738
G1 X90.321 Y79.4 E7.89482
G1 X129.298 Y79.4 E9.19121
G1 X130.16 Y79.412 E9.21988
G1 X131.097 Y79.468 E9.2511
G1 X132.025 Y79.607 E9.28231
G1 X132.938 Y79.828 E9.31355
G1 X133.794 Y80.116 E9.34359
G1 X134.686 Y80.506 E9.37597
G1 X135.507 Y80.959 E9.40716
G1 X136.258 Y81.461 E9.4372
G1 X137.017 Y82.073 E9.46963
G1 X137.691 Y82.726 E9.50084
G1 X138.305 Y83.435 E9.53204
G1 X138.855 Y84.196 E9.56327
G1 X139.317 Y84.972 E9.59331
G1 X139.74 Y85.849 E9.62569
G1 X140.069 Y86.727 E9.65688
G1 X140.32 Y87.632 E9.68811
G1 X140.491 Y88.559 E9.71947
G1 X140.586 Y89.689 E9.75718
G1 X140.6 Y90.33 E9.77851
G1 X140.599 Y129.395 E11.07781
G1 X140.589 Y130.14 E11.1026
G1 X140.535 Y131.077 E11.13381
G1 X140.397 Y132.006 E11.16505
G1 X140.178 Y132.918 E11.19625
G1 X139.88 Y133.808 E11.22746
G1 X139.503 Y134.668 E11.25869
G1 X139.053 Y135.49 E11.28986
G1 X138.531 Y136.271 E11.32111
G1 X137.942 Y137.001 E11.3523
G1 X137.317 Y137.652 E11.38232
G1 X136.582 Y138.293 E11.41476
G1 X135.822 Y138.843 E11.44596
G1 X135.016 Y139.324 E11.47718
G1 X134.171 Y139.732 E11.50839
G1 X133.293 Y140.063 E11.5396
G1 X132.389 Y140.316 E11.57082
G1 X131.462 Y140.488 E11.60218
G1 X130.311 Y140.586 E11.6406
G1 X129.67 Y140.6 E11.66192
G1 X90.57 Y140.599 E12.96239
G1 X89.854 Y140.589 E12.98621
G1 X88.918 Y140.535 E13.01739
G1 X87.989 Y140.396 E13.04864
G1 X87.077 Y140.177 E13.07983
G1 X86.187 Y139.878 E13.11106
G1 X85.328 Y139.501 E13.14226
G1 X84.505 Y139.05 E13.17347
G1 X83.725 Y138.528 E13.20469
G1 X83.021 Y137.962 E13.23473
G1 X82.319 Y137.287 E13.26713
G1 X81.704 Y136.578 E13.29834
G1 X81.174 Y135.847 E13.32837
G1 X80.674 Y135.011 E13.36077
G1 X80.266 Y134.166 E13.39198
G1 X79.935 Y133.288 E13.42319
G1 X79.683 Y132.384 E13.4544
G1 X79.511 Y131.455 E13.48583
G1 X79.413 Y130.276 E13.52518
G1 X79.4 Y129.658 E13.54574
G1 X79.401 Y90.531 E14.84711
G1 X79.411 Y89.848 E14.86982
G1 X79.466 Y88.911 E14.90104
G1 X79.605 Y87.983 E14.93225
G1 X79.825 Y87.071 E14.96346
G1 X80.125 Y86.181 E14.99469
G1 X80.502 Y85.322 E15.02589
G1 X80.953 Y84.5 E15.05708
G1 X81.476 Y83.72 E15.08831
G1 X82.043 Y83.016 E15.11838
G1 X82.718 Y82.315 E15.15075
M204 S2000
G0 F7200 X82.981 Y82.617
M204 S500
G1 F1500 X83.662 Y82.024 E15.18078
G1 X84.394 Y81.494 E15.21084
G1 X85.169 Y81.031 E15.24086
G1 X85.982 Y80.638 E15.2709
G1 X86.827 Y80.318 E15.30095
G1 X87.696 Y80.075 E15.33096
G1 X88.584 Y79.909 E15.36101
G1 X89.723 Y79.813 E15.39903
G1 X90.33 Y79.8 E15.41922
G1 X129.293 Y79.8 E16.71514
G1 X130.137 Y79.811 E16.74321
G1 X131.039 Y79.864 E16.77326
G1 X131.932 Y79.996 E16.80329
G1 X132.81 Y80.207 E16.83332
G1 X133.666 Y80.495 E16.86336
G1 X134.493 Y80.857 E16.89338
G1 X135.285 Y81.292 E16.92344
G1 X136.036 Y81.794 E16.95348
G1 X136.739 Y82.361 E16.98352
G1 X137.389 Y82.988 E17.01356
G1 X137.981 Y83.67 E17.0436
G1 X138.511 Y84.401 E17.07363
G1 X138.973 Y85.177 E17.10367
G1 X139.366 Y85.99 E17.1337
G1 X139.684 Y86.835 E17.16373
G1 X139.927 Y87.705 E17.19377
G1 X140.092 Y88.593 E17.22381
G1 X140.187 Y89.723 E17.26153
G1 X140.2 Y90.33 E17.28172
G1 X140.199 Y129.39 E18.58087
G1 X140.19 Y130.117 E18.60505
G1 X140.139 Y131.019 E18.6351
G1 X140.008 Y131.913 E18.66515
G1 X139.799 Y132.791 E18.69517
G1 X139.513 Y133.648 E18.72522
G1 X139.152 Y134.476 E18.75526
G1 X138.72 Y135.268 E18.78526
G1 X138.219 Y136.02 E18.81532
G1 X137.653 Y136.724 E18.84536
G1 X137.028 Y137.375 E18.87538
G1 X136.347 Y137.969 E18.90543
G1 X135.616 Y138.5 E18.93548
G1 X134.842 Y138.964 E18.9655
G1 X134.029 Y139.358 E18.99555
G1 X133.185 Y139.678 E19.02557
G1 X132.315 Y139.923 E19.05563
G1 X131.428 Y140.089 E19.08565
G1 X130.277 Y140.187 E19.12407
G1 X129.67 Y140.2 E19.14426
G1 X90.575 Y140.199 E20.44456
G1 X89.877 Y140.19 E20.46778
G1 X88.976 Y140.139 E20.4978
G1 X88.082 Y140.007 E20.52785
G1 X87.204 Y139.798 E20.55787
G1 X86.347 Y139.511 E20.58793
G1 X85.52 Y139.15 E20.61795
G1 X84.727 Y138.717 E20.648
G1 X83.976 Y138.216 E20.67802
G1 X83.272 Y137.65 E20.70807
G1 X82.621 Y137.024 E20.73811
G1 X82.028 Y136.343 E20.76814
G1 X81.498 Y135.612 E20.79817
G1 X81.034 Y134.837 E20.82821
G1 X80.64 Y134.024 E20.85826
G1 X80.32 Y133.18 E20.88828
G1 X80.076 Y132.31 E20.91834
G1 X79.91 Y131.422 E20.94838
G1 X79.813 Y130.267 E20.98693
G1 X79.8 Y129.658 E21.00719
G1 X79.801 Y90.536 E22.3084
G1 X79.81 Y89.871 E22.33052
G1 X79.862 Y88.969 E22.36057
G1 X79.994 Y88.076 E22.39059
G1 X80.204 Y87.198 E22.42062
G1 X80.491 Y86.341 E22.45068
G1 X80.853 Y85.514 E22.4807
G1 X81.286 Y84.722 E22.51073
G1 X81.788 Y83.971 E22.54077
G1 X82.355 Y83.267 E22.57084
G1 X82.981 Y82.617 E22.60085
M204 S2000
G1 F2400 E21.80085
;MESH:The Validator.stl
G0 F7200 X90.42 Y89.335
G0 X110 Y129.4
M204 S500
;TYPE:WALL-INNER
G1 F2400 E22.60085
G1 F1200 X129.4 Y129.4 E23.2461
G1 X129.4 Y90.6 E24.53659
G1 X90.6 Y90.6 E25.82708
G1 X90.6 Y129.4 E27.11758
G1 X110 Y129.4 E27.76282
M204 S2000
G0 F7200 X110 Y129.8
M204 S500
;TYPE:WALL-OUTER
G1 F1200 X129.8 Y129.8 E28.42137
G1 X129.8 Y90.2 E29.73848
G1 X90.2 Y90.2 E31.05558
G1 X90.2 Y129.8 E32.37268
G1 X110 Y129.8 E33.03123
M204 S2000
G0 F7200 X110 Y129.04
M204 S500
;TYPE:SKIN
G1 F1200 X90.96 Y129.04 E33.6645
G1 X90.96 Y90.96 E34.93105
G1 X129.04 Y90.96 E36.19759
G1 X129.04 Y129.04 E37.46414
G1 X110 Y129.04 E38.09741
M204 S2000
G0 F7200 X110 Y129.3
G0 X90.772 Y129.228
G0 X90.7 Y128.495
G0 X91.159 Y128.495
M204 S500
G1 F1200 X91.505 Y128.84 E38.11366
M204 S2000
G0 F7200 X92.07 Y128.84
M204 S500
G1 F1200 X91.159 Y127.929 E38.15651
M204 S2000
G0 F7200 X91.159 Y127.363
M204 S500
G1 F1200 X92.636 Y128.84 E38.22599
M204 S2000
G0 F7200 X93.202 Y128.84
M204 S500
G1 F1200 X91.159 Y126.798 E38.32206
M204 S2000
G0 F7200 X91.159 Y126.232
M204 S500
G1 F1200 X93.767 Y128.84 E38.44473
M204 S2000
G0 F7200 X94.333 Y128.84
M204 S500
G1 F1200 X91.159 Y125.666 E38.59403
M204 S2000
G0 F7200 X91.159 Y125.101
M204 S500
G1 F1200 X94.899 Y128.84 E38.76992
M204 S2000
G0 F7200 X95.464 Y128.84
M204 S500
G1 F1200 X91.159 Y124.535 E38.97242
M204 S2000
G0 F7200 X91.159 Y123.969
M204 S500
G1 F1200 X96.03 Y128.84 E39.20153
M204 S2000
G0 F7200 X96.596 Y128.84
M204 S500
G1 F1200 X91.159 Y123.404 E39.45725
M204 S2000
G0 F7200 X91.159 Y122.838
M204 S500
G1 F1200 X97.161 Y128.84 E39.73957
M204 S2000
G0 F7200 X97.727 Y128.84
M204 S500
G1 F1200 X91.159 Y122.272 E40.0485
M204 S2000
G0 F7200 X91.159 Y121.707
M204 S500
G1 F1200 X98.293 Y128.84 E40.38404
M204 S2000
G0 F7200 X98.858 Y128.84
M204 S500
G1 F1200 X91.159 Y121.141 E40.74618
M204 S2000
G0 F7200 X91.159 Y120.575
M204 S500
G1 F1200 X99.424 Y128.84 E41.13494
M204 S2000
G0 F7200 X99.99 Y128.84
M204 S500
G1 F1200 X91.159 Y120.009 E41.55032
M204 S2000
G0 F7200 X91.159 Y119.444
M204 S500
G1 F1200 X100.556 Y128.84 E41.99231
M204 S2000
G0 F7200 X101.121 Y128.84
M204 S500
G1 F1200 X91.159 Y118.878 E42.46089
M204 S2000
G0 F7200 X91.159 Y118.312
M204 S500
G1 F1200 X101.687 Y128.84 E42.95609
M204 S2000
G0 F7200 X102.253 Y128.84
M204 S500
G1 F1200 X91.159 Y117.747 E43.4779
M204 S2000
G0 F7200 X91.159 Y117.181
M204 S500
G1 F1200 X102.818 Y128.84 E44.0263
M204 S2000
G0 F7200 X103.384 Y128.84
M204 S500
G1 F1200 X91.159 Y116.615 E44.60133
M204 S2000
G0 F7200 X91.159 Y116.05
M204 S500
G1 F1200 X103.95 Y128.84 E45.20295
M204 S2000
G0 F7200 X104.515 Y128.84
M204 S500
G1 F1200 X91.159 Y115.484 E45.83118
M204 S2000
G0 F7200 X91.159 Y114.918
M204 S500
G1 F1200 X105.081 Y128.84 E46.48603
M204 S2000
G0 F7200 X105.647 Y128.84
M204 S500
G1 F1200 X91.159 Y114.353 E47.16747
M204 S2000
G0 F7200 X91.159 Y113.787
M204 S500
G1 F1200 X106.212 Y128.84 E47.87552
M204 S2000
G0 F7200 X106.778 Y128.84
M204 S500
G1 F1200 X91.159 Y113.221 E48.61019
M204 S2000
G0 F7200 X91.159 Y112.656
M204 S500
G1 F1200 X107.344 Y128.84 E49.37146
M204 S2000
G0 F7200 X107.909 Y128.84
M204 S500
G1 F1200 X91.159 Y112.09 E50.15933
M204 S2000
G0 F7200 X91.159 Y111.524
M204 S500
G1 F1200 X108.475 Y128.84 E50.97382
M204 S2000
G0 F7200 X109.041 Y128.84
M204 S500
G1 F1200 X91.159 Y110.958 E51.81493
M204 S2000
G0 F7200 X91.159 Y110.393
M204 S500
G1 F1200 X109.607 Y128.84 E52.68265
M204 S2000
G0 F7200 X110.172 Y128.84
M204 S500
G1 F1200 X91.159 Y109.827 E53.57696
M204 S2000
G0 F7200 X91.159 Y109.261
M204 S500
G1 F1200 X110.738 Y128.84 E54.4979
M204 S2000
G0 F7200 X111.304 Y128.84
M204 S500
G1 F1200 X91.159 Y108.696 E55.44543
M204 S2000
G0 F7200 X91.159 Y108.13
M204 S500
G1 F1200 X111.869 Y128.84 E56.41957
M204 S2000
G0 F7200 X112.435 Y128.84
M204 S500
G1 F1200 X91.159 Y107.564 E57.42033
M204 S2000
G0 F7200 X91.159 Y106.999
M204 S500
G1 F1200 X113.001 Y128.84 E58.44768
M204 S2000
G0 F7200 X113.566 Y128.84
M204 S500
G1 F1200 X91.159 Y106.433 E59.50164
M204 S2000
G0 F7200 X91.159 Y105.867
M204 S500
G1 F1200 X114.132 Y128.84 E60.58222
M204 S2000
G0 F7200 X114.698 Y128.84
M204 S500
G1 F1200 X91.159 Y105.302 E61.6894
M204 S2000
G0 F7200 X91.159 Y104.736
M204 S500
G1 F1200 X115.263 Y128.84 E62.82318
M204 S2000
G0 F7200 X115.829 Y128.84
M204 S500
G1 F1200 X91.159 Y104.17 E63.98358
M204 S2000
G0 F7200 X91.159 Y103.605
M204 S500
G1 F1200 X116.395 Y128.84 E65.17058
M204 S2000
G0 F7200 X116.96 Y128.84
M204 S500
G1 F1200 X91.159 Y103.039 E66.38418
M204 S2000
G0 F7200 X91.159 Y102.473
M204 S500
G1 F1200 X117.526 Y128.84 E67.6244
M204 S2000
G0 F7200 X118.092 Y128.84
M204 S500
G1 F1200 X91.159 Y101.908 E68.89122
M204 S2000
G0 F7200 X91.159 Y101.342
M204 S500
G1 F1200 X118.657 Y128.84 E70.18465
M204 S2000
G0 F7200 X119.223 Y128.84
M204 S500
G1 F1200 X91.159 Y100.776 E71.50469
M204 S2000
G0 F7200 X91.159 Y100.21
M204 S500
G1 F1200 X119.789 Y128.84 E72.85136
M204 S2000
G0 F7200 X120.355 Y128.84
M204 S500
G1 F1200 X91.159 Y99.645 E74.22462
M204 S2000
G0 F7200 X91.159 Y99.079
M204 S500
G1 F1200 X120.92 Y128.84 E75.62449
M204 S2000
G0 F7200 X121.486 Y128.84
M204 S500
G1 F1200 X91.159 Y98.513 E77.05098
M204 S2000
G0 F7200 X91.159 Y97.948
M204 S500
G1 F1200 X122.052 Y128.84 E78.50407
M204 S2000
G0 F7200 X122.617 Y128.84
M204 S500
G1 F1200 X91.159 Y97.382 E79.98376
M204 S2000
G0 F7200 X91.159 Y96.816
M204 S500
G1 F1200 X123.183 Y128.84 E81.49007
M204 S2000
G0 F7200 X123.749 Y128.84
M204 S500
G1 F1200 X91.159 Y96.251 E83.02298
M204 S2000
G0 F7200 X91.159 Y95.685
M204 S500
G1 F1200 X124.314 Y128.84 E84.58249
M204 S2000
G0 F7200 X124.88 Y128.84
M204 S500
G1 F1200 X91.159 Y95.119 E86.16862
M204 S2000
G0 F7200 X91.159 Y94.554
M204 S500
G1 F1200 X125.446 Y128.84 E87.78135
M204 S2000
G0 F7200 X126.011 Y128.84
M204 S500
G1 F1200 X91.159 Y93.988 E89.42068
M204 S2000
G0 F7200 X91.159 Y93.422
M204 S500
G1 F1200 X126.577 Y128.84 E91.08664
M204 S2000
G0 F7200 X127.143 Y128.84
M204 S500
G1 F1200 X91.159 Y92.857 E92.77919
M204 S2000
G0 F7200 X91.159 Y92.291
M204 S500
G1 F1200 X127.708 Y128.84 E94.49834
M204 S2000
G0 F7200 X128.274 Y128.84
M204 S500
G1 F1200 X91.159 Y91.725 E96.24412
M204 S2000
G0 F7200 X91.16 Y91.16
M204 S500
G1 F1200 X128.84 Y128.84 E98.01647
M204 S2000
G0 F7200 X128.84 Y128.274
M204 S500
G1 F1200 X91.726 Y91.16 E99.7622
M204 S2000
G0 F7200 X92.292 Y91.16
M204 S500
G1 F1200 X128.84 Y127.708 E101.4813
M204 S2000
G0 F7200 X128.84 Y127.143
M204 S500
G1 F1200 X92.857 Y91.16 E103.17383
M204 S2000
G0 F7200 X93.423 Y91.16
M204 S500
G1 F1200 X128.84 Y126.577 E104.83974
M204 S2000
G0 F7200 X128.84 Y126.011
M204 S500
G1 F1200 X93.989 Y91.16 E106.47903
M204 S2000
G0 F7200 X94.554 Y91.16
M204 S500
G1 F1200 X128.84 Y125.446 E108.09173
M204 S2000
G0 F7200 X128.84 Y124.88
M204 S500
G1 F1200 X95.12 Y91.16 E109.67782
M204 S2000
G0 F7200 X95.686 Y91.16
M204 S500
G1 F1200 X128.84 Y124.314 E111.23728
M204 S2000
G0 F7200 X128.84 Y123.749
M204 S500
G1 F1200 X96.251 Y91.16 E112.77017
M204 S2000
G0 F7200 X96.817 Y91.16
M204 S500
G1 F1200 X128.84 Y123.183 E114.27643
M204 S2000
G0 F7200 X128.84 Y122.617
M204 S500
G1 F1200 X97.383 Y91.16 E115.75607
M204 S2000
G0 F7200 X97.948 Y91.16
M204 S500
G1 F1200 X128.84 Y122.052 E117.20914
M204 S2000
G0 F7200 X128.84 Y121.486
M204 S500
G1 F1200 X98.514 Y91.16 E118.63558
M204 S2000
G0 F7200 X99.08 Y91.16
M204 S500
G1 F1200 X128.84 Y120.92 E120.0354
M204 S2000
G0 F7200 X128.84 Y120.355
M204 S500
G1 F1200 X99.645 Y91.16 E121.40864
M204 S2000
G0 F7200 X100.211 Y91.16
M204 S500
G1 F1200 X128.84 Y119.789 E122.75526
M204 S2000
G0 F7200 X128.84 Y119.223
M204 S500
G1 F1200 X100.777 Y91.16 E124.07526
M204 S2000
G0 F7200 X101.343 Y91.16
M204 S500
G1 F1200 X128.84 Y118.657 E125.36863
M204 S2000
G0 F7200 X128.84 Y118.092
M204 S500
G1 F1200 X101.908 Y91.16 E126.63543
M204 S2000
G0 F7200 X102.474 Y91.16
