;FLAVOR:Marlin
;TIME:24
;Filament used: 0.0162811m
;Layer height: 0.2
;MINX:90.248
;MINY:90.248
;MINZ:0.2
;MAXX:129.75
;MAXY:129.75
;MAXZ:0.2
;TARGET_MACHINE.NAME:Creality Ender-3 S1
;Generated with Cura_SteamEngine 5.8.1
M82 ;absolute extrusion mode
; Ender 3 S1 Start G-code
; M413 S0 ; Disable power loss recovery
G92 E0 ; Reset Extruder
; Prep surfaces before auto home for better accuracy
M140 S60
M104 S200
G28 O ; Home all untrusted axes
G28 ;Home
C29 L25.00 R195.00 F25.00 B195.00 X5 Y5 T50
G29 P1 
;G29 S0
;G29 A
M420 L0 S1
G1 Z10.0 F3000 ; Move Z Axis up little to prevent scratching of Heat Bed
G1 X0 Y0
M190 S60
M109 S200
G1 X0.1 Y20 Z0.3 F5000.0 ; Move to start position
G1 X0.1 Y200.0 Z0.3 F1500.0 E15 ; Draw the first line
G1 X0.4 Y200.0 Z0.3 F5000.0 ; Move to side a little
G1 X0.4 Y20 Z0.3 F1500.0 E30 ; Draw the second line
G92 E0 ; Reset Extruder
G1 Z2.0 F3000 ; Move Z Axis up little to prevent scratching of Heat Bed
G1 X5 Y20 Z0.3 F5000.0 ; Move over to prevent blob squish
M220 S50
G92 E0
G92 E0
G1 F2400 E-0.8
;LAYER_COUNT:1
;LAYER:0
M107
M204 S2000
;MESH:Funky Lahdi.stl
G0 F7500 X110 Y114.75 Z0.2
M204 S500
;TYPE:WALL-OUTER
G1 F2400 E0
G1 F1197.6 X105.496 Y114.75 E0.18763
G1 F1109.1 X105.292 Y114.708 E0.197
G1 F1107 X105.249 Y114.543 E0.20468
G1 F1202.4 X105.248 Y105.496 E0.58006
G1 F1115.2 X105.291 Y105.291 E0.58943
G1 F1109.1 X105.453 Y105.249 E0.59696
G1 F1202.4 X114.5 Y105.248 E0.97234
G1 F1111.1 X114.708 Y105.292 E0.98188
G1 F1107 X114.75 Y105.496 E0.99127
G1 F1197.6 X114.749 Y114.543 E1.36815
G1 F1102.9 X114.707 Y114.707 E1.37581
G1 F1098.9 X114.543 Y114.749 E1.3835
G1 F1190.5 X110 Y114.75 E1.57388
M204 S2000
G1 F2400 E0.77388
G0 F7500 X110 Y115.665
G0 X110 Y118.837
G0 X110 Y119.75
M204 S500
G1 F2400 E1.57388
G1 F1197.6 X100.496 Y119.75 E1.9698
G1 F1109.1 X100.292 Y119.708 E1.97917
G1 F1107 X100.249 Y119.543 E1.98686
G1 F1202.4 X100.248 Y100.496 E2.77716
G1 F1115.2 X100.291 Y100.291 E2.78653
G1 F1109.1 X100.453 Y100.249 E2.79406
G1 F1202.4 X119.5 Y100.248 E3.58435
G1 F1111.1 X119.708 Y100.292 E3.5939
G1 F1107 X119.75 Y100.496 E3.60329
G1 F1197.6 X119.749 Y119.543 E4.39675
G1 F1102.9 X119.707 Y119.707 E4.40441
G1 F1098.9 X119.543 Y119.749 E4.4121
G1 F1190.5 X110 Y119.75 E4.81202
M204 S2000
G1 F2400 E4.01202
G0 F7500 X110 Y120.665
G0 X110 Y123.837
G0 X110 Y124.75
M204 S500
G1 F2400 E4.81202
G1 F1197.6 X95.496 Y124.75 E5.41623
G1 F1109.1 X95.292 Y124.708 E5.4256
G1 F1107 X95.249 Y124.543 E5.43329
G1 F1202.4 X95.248 Y95.496 E6.63851
G1 F1115.2 X95.291 Y95.291 E6.64788
G1 F1109.1 X95.453 Y95.249 E6.65541
G1 F1202.4 X124.5 Y95.248 E7.86062
G1 F1111.1 X124.708 Y95.292 E7.87017
G1 F1107 X124.75 Y95.496 E7.87956
G1 F1197.6 X124.749 Y124.543 E9.08961
G1 F1102.9 X124.707 Y124.707 E9.09726
G1 F1098.9 X124.543 Y124.749 E9.10495
G1 F1190.5 X110 Y124.75 E9.71441
M204 S2000
G1 F2400 E8.91441
G0 F7500 X110 Y125.665
G0 X110 Y128.837
G0 X110 Y129.75
M204 S500
G1 F2400 E9.71441
G1 F1197.6 X90.496 Y129.75 E10.52692
G1 F1109.1 X90.292 Y129.708 E10.53629
G1 F1107 X90.249 Y129.543 E10.54397
G1 F1200 X90.249 Y110.019 E11.35569
G1 F1204.8 X90.248 Y90.495 E12.16415
G1 F1209.7 X90.248 Y90.496 E12.16419
G1 F1115.2 X90.291 Y90.291 E12.17356
G1 F1109.1 X90.453 Y90.249 E12.18109
G1 F1200 X109.977 Y90.249 E12.99281
G1 F1204.8 X129.501 Y90.248 E13.80127
G1 F1111.1 X129.708 Y90.292 E13.81078
G1 F1107 X129.75 Y90.496 E13.82016
G1 F1197.6 X129.749 Y129.543 E15.44679
G1 F1102.9 X129.707 Y129.707 E15.45445
G1 F1098.9 X129.543 Y129.749 E15.46214
G1 F1190.5 X110 Y129.75 E16.28114
;TIME_ELAPSED:24.991277
G1 F2400 E15.48114
M140 S0
G91 ;Relative positioning
G1 E-2 F2700 ;Retract a bit
G1 E-2 Z0.2 F2400 ;Retract and raise Z
G1 X5 Y5 F3000 ;Wipe out
G1 Z10 ;Raise Z more
G90 ;Absolute positioning

G1 X0 Y220 ;Present print
M106 S0 ;Turn-off fan
M104 S0 ;Turn-off hotend
M140 S0 ;Turn-off bed

M84 X Y E ;Disable all steppers but Z

M82 ;absolute extrusion mode
;End of Gcode
;SETTING_3 {"global_quality": "[general]\\nversion = 4\\nname = Standard Quality
;SETTING_3  #2\\ndefinition = creality_ender3s1\\n\\n[metadata]\\ntype = quality
;SETTING_3 _changes\\nquality_type = standard\\nsetting_version = 23\\n\\n[value
;SETTING_3 s]\\nadhesion_type = none\\nsupport_enable = True\\n\\n", "extruder_q
;SETTING_3 uality": ["[general]\\nversion = 4\\nname = Standard Quality #2\\ndef
;SETTING_3 inition = creality_ender3s1\\n\\n[metadata]\\ntype = quality_changes\
;SETTING_3 \nquality_type = standard\\nsetting_version = 23\\nposition = 0\\n\\n
;SETTING_3 [values]\\nspeed_print = 60.0\\n\\n"]}
